X: 3
T: The Old Favourite
R: Jig
M: 6/8
L: 1/8
K: G
|:B3 BAB|dBA G2B|ded d2 B|ded cBA|
B3 BAB|dBA G2B|ded cBA|1 (G3G2)A:|2 G3 GBd||
|:g3 f3|efe d2B|ded d2 B|ded def|
g3 f3|efe d2B|1 dge dBA|G3 GBd:|2 dge dge|dge dBA||
